src/images/pages/cashier/usdt-tether-icon.svg

<svg width="72" height="45" viewBox="0 0 72 45" fill="none" xmlns="http://www.w3.org/2000/svg">
<path d="M21.1284 15.5039L23.9674 21.7014L15.9216 29.8048L7.875 21.7005L10.7148 15.5039H21.1292H21.1284ZM19.3775 17.9158H12.3564V19.6463H14.9343V20.7819C12.8386 20.8785 11.2623 21.2954 11.2623 21.7971C11.2623 22.298 12.8394 22.7158 14.9343 22.8141V26.4514H16.7987V22.8141C18.8919 22.7166 20.4648 22.2988 20.4648 21.798C20.4648 21.298 18.8919 20.8793 16.7987 20.7827L16.7979 20.781V19.6463H19.3767V17.9158H19.3775ZM14.9343 20.9115V22.1802C15.0547 22.1887 15.4021 22.2098 15.8818 22.2098C16.4581 22.2098 16.7453 22.1844 16.7987 22.1802V20.9124C18.6479 20.9963 20.0258 21.32 20.0258 21.709C20.0258 22.0963 18.6462 22.4209 16.7987 22.5039V22.5022C16.7504 22.5056 16.5191 22.5192 16.0165 22.5209H15.8725C15.3911 22.5209 15.0538 22.5081 14.9343 22.5022V22.5031C13.0818 22.4209 11.7004 22.0963 11.7004 21.7064C11.7004 21.3192 13.0826 20.9937 14.9343 20.9115Z" fill="#1DB193"/>
<path d="M30.0191 18.3885V20.2241H31.7895V21.6012H30.0064V24.3927C30.0064 25.0088 30.3445 25.3105 30.8395 25.3105C31.0869 25.3105 31.3734 25.2317 31.6073 25.1139L32.0505 26.4766C31.5954 26.6596 31.2174 26.7385 30.7352 26.752C29.3428 26.8046 28.4318 26.0054 28.4318 24.3927V21.6003H27.2344V20.2232H28.4318V18.5597L30.0183 18.3885H30.0191ZM60.5462 20.1376L60.6632 20.8834C61.1581 20.0842 61.8217 19.9664 62.4725 19.9664C63.1361 19.9664 63.7742 20.2291 64.125 20.5817L63.4089 21.9715C63.0835 21.6961 62.7852 21.5512 62.2649 21.5512C61.431 21.5512 60.6632 21.9969 60.6632 23.1893V26.5978H59.075V20.1351L60.5462 20.1376ZM56.6547 22.6139C56.5505 21.7749 55.8996 21.3546 54.9886 21.3546C54.1301 21.3546 53.4267 21.7749 53.192 22.6139H56.6547ZM53.1666 23.9376C53.2708 24.7376 53.9606 25.3147 55.0801 25.3147C55.6649 25.3147 56.4335 25.091 56.7988 24.7113L57.8132 25.7207C57.1361 26.4283 56.0301 26.7698 55.053 26.7698C52.8411 26.7698 51.525 25.3935 51.525 23.3224C51.525 21.3563 52.853 19.9402 54.9361 19.9402C57.0835 19.9402 58.425 21.2774 58.1776 23.9376H53.1666ZM46.1649 17.4224V21.0139C46.7378 20.2664 47.4403 20.0435 48.1691 20.0435C49.9912 20.0435 50.7988 21.2893 50.7988 23.1902V26.5978H49.2106V23.2046C49.2106 22.0241 48.5988 21.5266 47.753 21.5266C46.8149 21.5266 46.1649 22.3258 46.1649 23.2961V26.6003H44.5767V17.4241L46.1649 17.4232V17.4224ZM41.9479 18.3139V20.1486H43.7183V21.5258H41.9352V24.3173C41.9352 24.9342 42.2742 25.2351 42.7683 25.2351C43.0157 25.2351 43.3022 25.1563 43.5369 25.0385L43.9793 26.4012C43.5242 26.5842 43.1462 26.6639 42.6649 26.6766C41.2717 26.7291 40.3606 25.9283 40.3606 24.3173V21.5266H39.1632V20.1495H40.3606V18.4868L41.9479 18.3156V18.3139ZM37.5615 22.6147C37.4573 21.7758 36.8064 21.3554 35.8954 21.3554C35.0369 21.3554 34.3327 21.7758 34.0988 22.6147H37.5615ZM34.0734 23.9385C34.1767 24.7385 34.8674 25.3156 35.9869 25.3156C36.5717 25.3156 37.3403 25.0919 37.7047 24.7122L38.72 25.7215C38.042 26.4291 36.9369 26.7707 35.9598 26.7707C33.7462 26.7707 32.4318 25.3944 32.4318 23.3232C32.4318 21.3571 33.7598 19.941 35.842 19.941C37.9895 19.941 39.3293 21.2783 39.0827 23.9385H34.0734Z" fill="#5B5A5D"/>
</svg>

<svg width="72" height="45" fill="none" xmlns="http://www.w3.org/2000/svg"><path d="M21.128 15.504l2.84 6.197-8.046 8.104L7.875 21.7l2.84-6.197h10.414zm-1.75 2.412h-7.022v1.73h2.578v1.136c-2.095.096-3.672.513-3.672 1.015 0 .501 1.577.919 3.672 1.017v3.637H16.8v-3.637c2.093-.097 3.666-.515 3.666-1.016 0-.5-1.573-.919-3.666-1.015l-.001-.002v-1.135h2.579v-1.73zm-4.444 2.995v1.27c.12.008.468.029.948.029.576 0 .863-.026.917-.03v-1.268c1.849.084 3.227.408 3.227.797 0 .387-1.38.712-3.227.795v-.002c-.049.004-.28.017-.782.019h-.144c-.482 0-.82-.013-.939-.019v.001c-1.852-.082-3.234-.407-3.234-.797 0-.387 1.383-.712 3.234-.794z" fill="#1DB193"/><path d="M30.02 18.389v1.835h1.77v1.377h-1.784v2.792c0 .616.338.918.834.918.247 0 .533-.08.767-.197l.444 1.363a3.543 3.543 0 01-1.316.275c-1.392.053-2.303-.747-2.303-2.36V21.6h-1.198v-1.377h1.198V18.56l1.586-.171h.001zm30.526 1.749l.117.745c.495-.799 1.159-.917 1.81-.917.663 0 1.301.263 1.652.616l-.716 1.39c-.325-.276-.624-.42-1.144-.42-.834 0-1.602.445-1.602 1.637v3.409h-1.588v-6.463l1.471.003zm-3.891 2.476c-.105-.84-.755-1.26-1.666-1.26-.859 0-1.562.42-1.797 1.26h3.463zm-3.488 1.324c.104.8.794 1.377 1.913 1.377.585 0 1.354-.224 1.719-.604l1.014 1.01c-.677.707-1.783 1.049-2.76 1.049-2.212 0-3.528-1.377-3.528-3.448 0-1.966 1.328-3.382 3.411-3.382 2.148 0 3.489 1.337 3.242 3.998h-5.011zm-7.002-6.516v3.592c.573-.748 1.275-.97 2.004-.97 1.822 0 2.63 1.245 2.63 3.146v3.408H49.21v-3.393c0-1.18-.612-1.678-1.458-1.678-.938 0-1.588.799-1.588 1.77V26.6h-1.588v-9.176h1.588v-.002zm-4.217.892v1.835h1.77v1.377h-1.783v2.791c0 .617.34.918.833.918.248 0 .534-.079.769-.197l.442 1.363a3.526 3.526 0 01-1.314.276c-1.393.052-2.304-.749-2.304-2.36v-2.79h-1.198v-1.378h1.198v-1.662l1.587-.171v-.002zm-4.386 4.3c-.105-.838-.756-1.259-1.667-1.259-.858 0-1.562.42-1.796 1.26h3.463zm-3.489 1.325c.104.8.794 1.377 1.914 1.377.585 0 1.353-.224 1.718-.604l1.015 1.01c-.678.707-1.783 1.049-2.76 1.049-2.214 0-3.528-1.377-3.528-3.448 0-1.966 1.328-3.382 3.41-3.382 2.148 0 3.487 1.337 3.24 3.998h-5.009z" fill="#5B5A5D"/></svg>
